X:1700
T:A Hunting We Will Go (Children's Game)
F:http://www.vwml.org/record/CJS2/10/1700
S:Children at Winster School, Derbyshire
Z:transcribed by Alice Baillie
M:C
L:1/4
K:G
N:No meter recorded originally 
B A | 	G D B, D | G3 G | A A A A | A3 A | 
w:O a hun-ting we will go A hun-ting we will go We'll
B B B B | c/ c/ c/ c/ c c | B B A A | G3	|| 	
w:catch a fox and put him in a box and then we'll let him go

